X: 22381
T: Lad O'Beirne's
R: reel
M: 4/4
K: Dmajor
|:b2af bfaf|eafd efdB|AFDF Adfd|BABc dfed|
B~F2F BFAF|EAFD EFDF|Adfd Bdgb|1 agfe d3g:|2 agfe d3e||
f2ed fded|BedB AGFB|A2GB ABdf|e2df ~e2de|
fede fded|BedB ADFB|A2GB ABdf|e3f d3e|
f2ed fded|BedB AGFB|A2GB ABdf|e3f gfed|
+slide+f3e d3A|BAdB AFDF|Adfd Bdgb|agfe d3g||

